X: 2034
T: Zahm-i Sînem Hançer-i Zerkâr...
C: Zekâî Dede
O: Turkey
F: http://compmusic.upf.edu/node/140
N: hisarbuselik--beste--cenber--zahm-i_sinem--zekai_dede
N: makam= hisarbuselik
N: form= beste
N: usul= cenber = 24/4
M: 24/4
L: 1/16
K: C _1/4B   
Q: 1/4=72
%%MIDI tuningsystem comma53
^d2 e6 d2 e2 f2 fe  | e8 d4 f4  | d4 e4 c4 {e}d2 c2  | \
w:  Ah  *  zahm_ *  *  i   |  sî nem   |  ha   | 
=B2 A2 G2 c2 B2 A2 ^3/4G2 A2  | 
w:  *  *  han *  *  çe *  ri   | 
A4 =B4 ^G4 A4  | =B2 c2 Be dc {d}c8  | \
w:  *  ri  zer  |   | 
z2 c2 =B2 c2 d4 d2 e2  | d2 c4 d2 c2 {d}=B4 A2  | 
w:  kâr  *  *  bil  |  mez  *  *  ki   | 
dc2=B A4 z2 a2 ^g2 a2  | =b4 ^g4 z2 {b}a2 g2 f2  | \
w:  *  *  *  *  kim  *  bi  |  lir  *  *  yâr    | 
^gf e^d e2 ^3/4f2 =g8  | 
w:   | 
e2 ^3/4f2 g2 f2 z2 g2 f2 g2  | b2 a2 g2 f2 e2 e4 d2  | \
w:  Öm *  rüm  *  mî rim  a  |  man  *  *  *  *  yâr   | 
d2 e2 d2 c2 c2 d2 c2 =B2  | 
w:  bil *  *  *  mez   | 
=B2 c2 B2 A2 dc cB A4  | z2 c{d}c B2 c2 d8  | \
w:  ki   |  kim  *  *  *  *  bi  | 
z2 c2 =B2 A2 Bd cB BA2^G  | 
w:  lir   | 
^G2 A6 e8  | ^d2 e6 d2 e2 f2 fe  | e8 d4 f4  | \
w:  vay   *  SAZ  |  Ah  *  zahm_ *  *  i   |  sî nem   | 
d4 e4 c4 {e}d2 c2  | =B2 A2 G2 c2 B2 A2 ^3/4G2 A2  | 
w:  ha   |  *  *  han *  *  çe *  ri   | 
A4 =B4 ^G4 A4  | =B2 c2 Be dc {d}c8  | \
w:  *  ri  zer  |   | 
z2 c2 =B2 c2 d4 d2 e2  | d2 c4 d2 c2 {d}=B4 A2  | 
w:  kâr  *  *  bil  |  mez  *  *  ki   | 
dc2=B A4 z2 a2 ^g2 a2  | =b4 ^g4 z2 {b}a2 g2 f2  | \
w:  *  *  *  *  kim  *  bi  |  lir  *  *  yâr    | 
^gf e^d e2 ^3/4f2 =g8  | 
w:   | 
e2 ^3/4f2 g2 f2 z2 g2 f2 g2  | b2 a2 g2 f2 e2 e4 d2  | \
w:  Öm *  rüm  *  mî rim  a  |  man  *  *  *  *  yâr   | 
d2 e2 d2 c2 c2 d2 c2 =B2  | 
w:  bil *  *  *  mez   | 
=B2 c2 B2 A2 dc cB A4  | z2 c{d}c B2 c2 d8  | \
w:  ki   |  kim  *  *  *  *  bi  | 
z2 c2 =B2 A2 Bd cB BA2^G  | 
w:  lir   | 
^G2 A6 =B4 c4  | c2 .c6 c2 d2 ed dc  | \
w:  vay   *  SAZ  |  Ah  *  günc_ *  i   | 
c8 z2 d4 e2  | e2 ef e2 de d2 cd c2 =Bc  | 
w:  aşk da   |  ha   | 
=Bd cB A^G AB A2 B4 =G2  | A4 B4 G4 A4  | \
w:  *  *  *  *  *  *  *  *  *  has ret_  |  i  *  rû  | 
B2 c2 Be dc c8  | 
w:   | 
z2 c2 _2/4B2 c2 d6 e2  | d2 c4 d2 c2 _2/4B4 A2  | \
w:  yin *  le  câ  |  nâ  *  *  çe   | 
_2/4Bd cB A4 z2 a2 ^g2 a2  | 
w:  *  *  *  *  *  çek ti  | 
=b4 ^g4 z2 {b}a2 g2 f2  | ^gf e^d e2 ^3/4f2 =g8  | \
w:  ğim    |   | 
e2 ^3/4f2 g2 f2 z2 g2 f2 g2  | 
w:  Öm *  rüm  *  mî rim  a  | 
b2 a2 g2 f2 e2 e4 d2  | d2 e2 d2 c2 c2 d2 c2 =B2  | \
w:  man  *  *  *  *  yâr   |  bil *  *  *  mez   | 
=B2 c2 B2 A2 dc2B A4  | 
w:  ki   | 
z2 c2 B2 c2 d8  | z2 c2 =B2 A2 Bd cB BA2^G  | \
w:  kim  *  *  bi  |  lir   | 
^G2 A6 z8  | |


